X:74
C:Page 37
T:Lady Mary Ramseys Strathspey. MBe.74
S:Matthew Betham MS, Towcett Cumbria, 1815
O:England;Cumbria;Towcett
Z:VMP – Hugh Taylor, 2012
M:Ador
L:1/8
Q:1/2=100
R:.Reel
C:Nathaniel Gow
N:The exact position of many of the slurs is not clear: this is my best guess.
K:G
B|G3 e d<B B<~e|d<B e>c dB Bg|G3 e d<BB>e|e<F d>B A/A/A A:|
|:g/a/|b<gg>b b<gg>b|g<ee>g (dBB) ~g>a|b<(gg>)b b<fg>d|e<g d>B A/A/A Ag/a/|
(b<gg>b) (a<ff>a)|g>b(e>g) d<(BB>d)|g>(bf>a) e<gd>d|B<g d>B A/A/A A:|

